1-exam/assets/images/vector-dark-theme.svg

<svg width="102" height="84" viewBox="0 0 102 84" fill="none" xmlns="http://www.w3.org/2000/svg">
<path d="M34.6729 1.77539L37.5762 7.56152L37.8164 8.04004L37.3223 8.24707C30.7364 10.999 24.9942 15.3402 20.0957 21.2822C15.4221 27.2121 13.1133 33.2109 13.1133 39.2861C13.1133 41.5152 13.3595 43.4829 13.8447 45.1953C17.2424 42.6371 21.139 41.3574 25.5166 41.3574C31.436 41.3575 36.3967 43.3262 40.3643 47.2695C44.5717 51.0206 46.6611 56.0933 46.6611 62.4287C46.6611 68.3468 44.5652 73.4028 40.3848 77.5684C36.4139 81.525 31.4459 83.4999 25.5166 83.5C16.9656 83.5 10.458 79.9896 6.06152 72.9814L5.71777 72.4258C2.23087 66.6501 0.5 59.667 0.5 51.5C0.500001 40.6976 3.21138 30.9615 8.64062 22.3057L8.64551 22.2979C14.2979 13.6329 22.7659 6.72004 34.0166 1.5459L34.4561 1.34375L34.6729 1.77539ZM89.5117 1.77539L92.415 7.56152L92.6553 8.04004L92.1602 8.24707C85.5744 10.999 79.833 15.3403 74.9346 21.2822C70.2609 27.2121 67.9512 33.2109 67.9512 39.2861C67.9512 41.5152 68.1984 43.4829 68.6836 45.1953C72.0812 42.6373 75.9771 41.3575 80.3545 41.3574C86.2741 41.3574 91.2355 43.326 95.2031 47.2695C99.4105 51.0206 101.5 56.0933 101.5 62.4287C101.5 68.3468 99.4041 73.4028 95.2236 77.5684C91.2527 81.5251 86.284 83.5 80.3545 83.5C71.8032 83.4999 65.2958 79.9892 60.8994 72.9805C57.1832 67.0989 55.3389 59.9303 55.3389 51.5C55.3389 40.6975 58.0502 30.9615 63.4795 22.3057L63.4844 22.2979C69.1368 13.6329 77.6048 6.72004 88.8555 1.5459L89.2949 1.34375L89.5117 1.77539Z" stroke="url(#paint0_linear_3306_103)"/>
<defs>
<linearGradient id="paint0_linear_3306_103" x1="0.750061" y1="55.4086" x2="121.357" y2="72.9687" gradientUnits="userSpaceOnUse">
<stop stop-color="#53F3CD"/>
<stop offset="1" stop-color="#53F3CD" stop-opacity="0"/>
</linearGradient>
</defs>
</svg>

<svg xmlns="http://www.w3.org/2000/svg" width="102" height="84" fill="none"><path stroke="url(#a)" d="m34.7 1.8 2.9 5.8.2.4-.5.2c-6.6 2.8-12.3 7.1-17.2 13-4.7 6-7 12-7 18 0 2.3.3 4.3.7 6 3.4-2.6 7.3-3.8 11.7-3.8 6 0 10.9 2 14.9 5.9 4.2 3.7 6.3 8.8 6.3 15.1 0 6-2.1 11-6.3 15.2-4 4-9 5.9-14.9 5.9-8.5 0-15-3.5-19.4-10.5l-.4-.6A39.8 39.8 0 0 1 .5 51.5C.5 40.7 3.2 31 8.6 22.3A58.4 58.4 0 0 1 34 1.5l.5-.2.2.5Zm54.8 0 3 5.8.2.4-.5.2c-6.6 2.8-12.4 7.1-17.3 13-4.6 6-7 12-7 18 0 2.3.3 4.3.8 6 3.4-2.6 7.3-3.8 11.7-3.8 5.9 0 10.8 2 14.8 5.9 4.2 3.7 6.3 8.8 6.3 15.1 0 6-2.1 11-6.3 15.2-4 4-9 5.9-14.8 5.9-8.6 0-15.1-3.5-19.5-10.5-3.7-5.9-5.6-13-5.6-21.5 0-10.8 2.8-20.5 8.2-29.2A58.4 58.4 0 0 1 88.9 1.5l.4-.2.2.5Z"/><defs><linearGradient id="a" x1=".8" x2="121.4" y1="55.4" y2="73" gradientUnits="userSpaceOnUse"><stop stop-color="#53F3CD"/><stop offset="1" stop-color="#53F3CD" stop-opacity="0"/></linearGradient></defs></svg>
